build/assets/img/approach.svg

<svg width="448" height="408" viewBox="0 0 448 408" fill="none" xmlns="http://www.w3.org/2000/svg">
<path d="M231.138 123.455L223.688 123.458L228 380.263V380.264C228.034 382.846 227.525 385.402 226.505 387.787C225.484 390.172 223.969 392.337 222.052 394.161C220.134 395.983 217.85 397.428 215.331 398.414C212.811 399.399 210.105 399.906 207.367 399.908C204.628 399.909 201.91 399.405 199.366 398.423C196.822 397.441 194.502 396 192.538 394.182C190.574 392.362 189.005 390.201 187.922 387.819C186.839 385.437 186.263 382.882 186.23 380.299L186.01 363.768V363.767C186.004 363.317 185.904 362.87 185.714 362.451C185.523 362.033 185.246 361.65 184.897 361.326C184.547 361.002 184.132 360.744 183.675 360.567C183.218 360.391 182.729 360.3 182.235 360.301C181.237 360.302 180.294 360.674 179.608 361.326C178.923 361.978 178.551 362.853 178.563 363.762L178.065 363.768L178.563 363.762L178.779 380.164C178.872 387.231 181.953 394.014 187.357 399.02C192.762 404.026 200.046 406.841 207.608 406.837C215.095 406.832 222.233 404.036 227.451 399.075C232.668 394.116 235.543 387.398 235.451 380.401C235.451 380.4 235.451 380.4 235.451 380.4L231.138 123.455Z" fill="white" stroke="black"/>
<path d="M446.367 201.574C446.368 201.662 446.368 201.749 446.368 201.837C430.808 180.473 406.866 166.846 380.092 167.046C344.627 167.308 314.511 191.75 302.394 226.037C289.766 191.932 259.29 167.963 223.826 168.231H223.825C188.794 168.509 158.985 192.347 146.573 225.98C133.678 192.54 103.505 169.143 68.4719 169.405C41.1432 169.61 16.9854 184.172 1.79753 206.529C1.78855 205.999 1.78156 205.468 1.77856 204.938C0.953688 93.8757 99.7594 3.00095 222.582 2.06935C345.405 1.13775 445.542 90.5063 446.367 201.574Z" fill="white" stroke="black"/>
<path d="M0.346028 211.622L2.23516 208.734C9.9892 196.897 20.3146 187.178 32.0993 180.638L31.055 178.76C19.9147 184.943 10.0501 193.884 2.35486 204.743C2.16635 177.983 7.84673 151.505 18.995 127.172L17.0361 126.284C5.73017 150.962 -0.0150352 177.818 0.207392 204.956C0.215372 206.027 0.235321 207.093 0.261255 208.159L0.346028 211.622Z" fill="#49263E"/>
<path d="M447.661 206.919C447.664 206.369 447.939 202.111 447.936 201.564C447.753 174.27 441.54 147.354 429.742 122.739C418.282 98.6753 401.97 77.1167 381.264 58.6507C360.559 40.1847 336.519 25.7658 309.789 15.7544C282.12 5.41668 252.772 0.258456 222.565 0.497441C206.416 0.611248 190.315 2.30349 174.494 5.54993L174.928 7.65382C190.612 4.4361 206.573 2.75852 222.581 2.64521C344.276 1.72448 444.044 90.1533 445.761 200.07C438.24 190.158 428.826 181.95 418.368 176.211C406.664 169.712 393.472 166.357 380.08 166.472L380.096 168.62C405.037 168.431 428.195 180.348 444.112 201.439C445.274 202.992 446.34 204.614 447.304 206.296L447.661 206.919Z" fill="#49263E"/>
<path d="M303.474 227.662C311.906 158.398 296.572 106.478 282.224 75.1219C264.106 35.5263 239.817 11.6098 223.135 1.56628L222.019 2.4919C238.433 12.3671 262.356 36.8674 280.269 76.0154C294.504 107.12 309.713 158.635 301.339 227.402L303.474 227.662Z" fill="#49263E"/>
<path d="M145.522 227.566L147.651 227.272C131.314 107.91 185.286 26.0565 223.142 2.48173L223.135 1.56628L222.014 1.58893C205.464 11.8883 181.598 36.0059 164.262 75.3809C150.495 106.645 136.06 158.441 145.522 227.566Z" fill="#49263E"/>
<path fill-rule="evenodd" clip-rule="evenodd" d="M216.098 119.635C216.098 131.937 216.2 132.602 218.093 132.602C219.972 132.602 220.087 131.937 220.087 121.131V109.661H226.571H233.054V121.131C233.054 131.937 233.17 132.602 235.049 132.602C236.941 132.602 237.044 131.937 237.044 119.635V106.669H226.571H216.098V119.635Z" fill="black"/>
<path fill-rule="evenodd" clip-rule="evenodd" d="M343.315 108.741C343.464 109.84 344.67 110.067 347.965 109.617L352.411 109.011L353.962 120.376C355.424 131.081 355.629 131.725 357.49 131.471C359.352 131.217 359.377 130.542 357.923 119.893L356.38 108.585L360.462 107.717C362.707 107.24 364.652 106.271 364.783 105.561C364.962 104.579 362.387 104.629 354.066 105.764C344.989 107.004 343.147 107.514 343.315 108.741Z" fill="black"/>
<path fill-rule="evenodd" clip-rule="evenodd" d="M75.7344 110.1C75.4542 110.752 74.6223 114.343 73.8892 118.08C73.1541 121.819 72.0609 126.944 71.4604 129.469C70.467 133.646 70.5498 134.08 72.389 134.278C74.1016 134.461 74.6024 133.683 75.6656 129.177C76.687 124.847 77.2645 123.896 78.7716 124.058C81.4108 124.342 83.7029 127.569 85.1492 133.038C86.019 136.325 86.9586 137.827 88.2323 137.963C89.2397 138.072 90.0865 137.952 90.1134 137.699C90.273 136.211 86.4489 126.16 85.2609 124.946C84.0061 123.664 84.5288 122.92 89.7873 118.493C94.7256 114.337 95.4178 113.403 93.8748 112.986C92.6609 112.655 90.2212 114.025 86.8359 116.937C83.9852 119.388 80.7894 121.301 79.7321 121.187C78.0176 121.003 77.9089 120.405 78.7248 115.636C79.3761 111.836 79.2773 110.106 78.3856 109.651C76.5822 108.732 76.306 108.778 75.7344 110.1Z" fill="black"/>
</svg>

<svg width="448" height="408" fill="none" xmlns="http://www.w3.org/2000/svg"><path d="M231.138 123.455l-7.45.003L228 380.263v.001a18.491 18.491 0 01-1.495 7.523 19.285 19.285 0 01-4.453 6.374 20.708 20.708 0 01-6.721 4.253 21.936 21.936 0 01-7.964 1.494 22.216 22.216 0 01-8.001-1.485 21.383 21.383 0 01-6.828-4.241 19.942 19.942 0 01-4.616-6.363 18.735 18.735 0 01-1.692-7.52l-.22-16.531v-.001a3.29 3.29 0 00-.296-1.316 3.554 3.554 0 00-.817-1.125 3.838 3.838 0 00-1.222-.759 3.988 3.988 0 00-1.44-.266 3.816 3.816 0 00-2.627 1.025 3.296 3.296 0 00-1.045 2.436l-.498.006.498-.006.216 16.402c.093 7.067 3.174 13.85 8.578 18.856 5.405 5.006 12.689 7.821 20.251 7.817 7.487-.005 14.625-2.801 19.843-7.762 5.217-4.959 8.092-11.677 8-18.674v-.001l-4.313-256.945z" fill="#fff" stroke="#000"/><path d="M446.367 201.574l.001.263c-15.56-21.364-39.502-34.991-66.276-34.791-35.465.262-65.581 24.704-77.698 58.991-12.628-34.105-43.104-58.074-78.568-57.806h-.001c-35.031.278-64.84 24.116-77.252 57.749-12.895-33.44-43.068-56.837-78.101-56.575-27.329.205-51.487 14.767-66.674 37.124-.01-.53-.016-1.061-.02-1.591C.955 93.876 99.76 3.001 222.583 2.069c122.823-.931 222.96 88.437 223.785 199.505z" fill="#fff" stroke="#000"/><path d="M.346 211.622l1.89-2.888c7.753-11.837 18.079-21.556 29.863-28.096l-1.044-1.878c-11.14 6.183-21.005 15.124-28.7 25.983a183.14 183.14 0 0116.64-77.571l-1.959-.888A185.237 185.237 0 00.261 208.159l.085 3.463zm447.315-4.703c.003-.55.278-4.808.275-5.355a185.245 185.245 0 00-18.194-78.825c-11.46-24.064-27.772-45.622-48.478-64.088-20.705-18.466-44.745-32.885-71.475-42.897C282.12 5.417 252.772.258 222.565.497a247.842 247.842 0 00-48.071 5.053l.434 2.104a245.773 245.773 0 0147.653-5.009c121.695-.92 221.463 87.508 223.18 197.425-7.521-9.912-16.935-18.12-27.393-23.859a77.5 77.5 0 00-38.288-9.739l.016 2.148c24.941-.189 48.099 11.728 64.016 32.819a47.692 47.692 0 013.192 4.857l.357.623z" fill="#49263E"/><path d="M303.474 227.662c8.432-69.264-6.902-121.184-21.25-152.54-18.118-39.596-42.407-63.512-59.089-73.556l-1.116.926c16.414 9.875 40.337 34.375 58.25 73.523 14.235 31.105 29.444 82.62 21.07 151.387l2.135.26z" fill="#49263E"/><path d="M145.522 227.566l2.129-.294C131.314 107.91 185.286 26.057 223.142 2.482l-.007-.916-1.121.023c-16.55 10.3-40.416 34.417-57.752 73.792-13.767 31.264-28.202 83.06-18.74 152.185z" fill="#49263E"/><path fill-rule="evenodd" clip-rule="evenodd" d="M216.098 119.635c0 12.302.102 12.967 1.995 12.967 1.879 0 1.994-.665 1.994-11.471v-11.47h12.967v11.47c0 10.806.116 11.471 1.995 11.471 1.892 0 1.995-.665 1.995-12.967v-12.966h-20.946v12.966zm127.217-10.894c.149 1.099 1.355 1.326 4.65.876l4.446-.606 1.551 11.365c1.462 10.705 1.667 11.349 3.528 11.095 1.862-.254 1.887-.929.433-11.578l-1.543-11.308 4.082-.868c2.245-.477 4.19-1.446 4.321-2.156.179-.982-2.396-.932-10.717.203-9.077 1.24-10.919 1.75-10.751 2.977zM75.734 110.1c-.28.652-1.112 4.243-1.845 7.98-.735 3.739-1.828 8.864-2.429 11.389-.993 4.177-.91 4.611.929 4.809 1.713.183 2.213-.595 3.277-5.101 1.021-4.33 1.599-5.281 3.106-5.119 2.639.284 4.93 3.511 6.377 8.98.87 3.287 1.81 4.789 3.083 4.925 1.008.109 1.855-.011 1.881-.264.16-1.488-3.664-11.539-4.852-12.753-1.255-1.282-.732-2.026 4.526-6.453 4.939-4.156 5.63-5.09 4.088-5.507-1.214-.331-3.654 1.039-7.04 3.951-2.85 2.451-6.046 4.364-7.103 4.25-1.714-.184-1.823-.782-1.007-5.551.651-3.8.552-5.53-.34-5.985-1.803-.919-2.079-.873-2.65.449z" fill="#000"/></svg>
